X:1
T:Title
%%score { ( 1 3 ) | ( 2 4 ) }
L:1/8
M:4/4
K:Ab
V:1 treble nm="Grand Piano"
V:3 treble 
V:2 bass 
V:4 bass 
V:1
 z4 z2 z[Q:1/4=100] E | [A,A]2 GG F2 EE | [A,CA]2 [EB][EB] [Ec]2 z [Ae] | [Ge]2 [GB][Gd] d2 cB | %4
 B2 BB E3 [E,DE] | C2- [C-G][C-G] [C-F]2 [C-E][CE] | [A,CA]2 [EB][EB] [Ec]2 z [Ec] | %7
 .[B,FB]2 [Fd][FB] AecA |[M:7/8] F2 G G [CA]3 |[M:1/8] [Ae] |[M:4/4] [Ge]2 [GB][Gd] d c2 e' | %11
 [ge']2 [gb][gd'] [ad'] [ac']2 [=Ec] |[M:7/8] [Ec]2 [EG] [Ec][GB] [FA]2 |[M:1/8] [=ec'] | %14
[M:4/4] [ec']2 [eg][ec'] [gb] a2 B | B2 BB BG[A,DF][G,DE] | C2- [C-G][C-G] [C-F]2 [C-E][CE] | %17
 [A,CA]2 [EB][EB] [Ec]2 z [Ec] | .[B,FB]2 [Fd][FB] AecA |[M:15/8] F2 GG [CA]2- [CA] z2 z6 |] %20
V:2
 z4 z2 z E, | z2 G,G, F,2 E,E, | A,,2 [E,G,][E,G,] [A,,A,]2 z [A,C] | %3
 [E,B,]2 [E,E][E,E][K:treble] [A,FA]2 [A,EA]B, | B,2 B,[K:bass]B, z D,C,B,, | z2 G,G, F,2 E,E, | %6
 A,,2 [E,G,][E,G,] [A,,A,]2 z [A,,A,] | z[K:treble] f[K:bass][D,B,][D,D] [E,CE]2 [E,A,E][E,CE] | %8
[M:7/8] [E,B,D]2 [E,B,D] [E,B,D] [A,,A,]3 |[M:1/8] [A,C] | %10
[M:4/4] [E,B,]2 [E,E][E,E][K:treble] [A,FA] [A,EA]2 [Aca] | %11
 [EB]2 [Ee][Ee] [Af] [Ae]2[K:bass] [C,C] |[M:7/8] [C,C]2 [C,C] [C,C][F,C] [F,C]2 | %13
[M:1/8][K:treble] [Cc] |[M:4/4] [Cc]2 [Cc][Cc] [Fc] [Fcf]2[K:bass] B, | %15
 B,2 B,B, [E,D]-[E,B,D]E,E, | z2 G,G, F,2 E,E, | A,,2 [E,G,][E,G,] [A,,A,]2 z [A,,A,] | %18
 z[K:treble] f[K:bass][D,B,][D,D] [E,CE]2 [E,A,E][E,CE] | %19
[M:15/8] [E,B,D]2 [E,B,D][E,B,D] [A,,A,]2- [A,,A,] z2 z6 |] %20
V:3
 x8 | C8 | x8 | x8 | x8 | [A,A]2 z2 z4 | x8 | x8 |[M:7/8] x7 |[M:1/8] x |[M:4/4] x8 | x8 | %12
[M:7/8] x7 |[M:1/8] x |[M:4/4] x8 | x8 | [A,A]2 z2 z4 | x8 | x8 |[M:15/8] x15 |] %20
V:4
 x8 | A,,8 | x8 | x4[K:treble] x4 | z4[K:bass] E,4 | A,,8 | x8 | D,2[K:treble][K:bass] z2 z4 | %8
[M:7/8] x7 |[M:1/8] x |[M:4/4] x4[K:treble] x4 | x7[K:bass] x |[M:7/8] x7 |[M:1/8][K:treble] x | %14
[M:4/4] x7[K:bass] x | z4 .G,2 z2 | A,,8 | x8 | D,2[K:treble][K:bass] z2 z4 |[M:15/8] x15 |] %20

